X: 1162
T: Hills of Ireland. The
B:O'Neill's Music of Ireland
N:O'Neill's - 1162
Z:Transcribed by Stephen Foy (shf@access.digex.net)
Z:abc 1.6
M:9/8
R:slipjig
K:G
B2 E EGE AFD|BGB cBA BGE|B2 E EGE BGE|AB^c d=cB AFD:|
|:E2 e ef^d e2 B|E2 e e2 ^c dAF|D2 e ef^d e2 B|AB^c d=cB AFD:|


